src/status/symbolic/battery-low-charging-symbolic.svg

<svg width="16" height="16" version="1.1" xmlns="http://www.w3.org/2000/svg">
 <g fill="#363636">
  <path d="m6.834 4-3.334 5h3l-0.75 3h0.41602l3.334-5h-3l0.75-3z" enable-background="new"/>
  <g fill-rule="evenodd">
   <path d="m2 3c-1.108 0-2 0.892-2 2v6c0 1.108 0.892 2 2 2h9c1.108 0 2-0.892 2-2v-6c0-1.108-0.892-2-2-2zm0 1h9c0.554 0 1 0.446 1 1v6c0 0.554-0.446 1-1 1h-9c-0.554 0-1-0.446-1-1v-6c0-0.554 0.446-1 1-1z" enable-background="new" style="paint-order:stroke fill markers"/>
   <path d="m2.5176 5c-0.28695 0-0.51758 0.24253-0.51758 0.54492v4.9102c0 0.3024 0.23063 0.54492 0.51758 0.54492h1.9648c0.28695 0 0.51758-0.24253 0.51758-0.54492v-0.45508h-1.5c-0.79859-1.711e-4 -1.2749-0.89013-0.83203-1.5547l2.1855-3.2773c-0.094089-0.10284-0.22421-0.16797-0.37109-0.16797h-1.9648z" enable-background="new" style="paint-order:stroke fill markers"/>
   <path d="m14 6v4a2 2 0 0 0 2-2 2 2 0 0 0-2-2z" enable-background="new" style="paint-order:stroke fill markers"/>
  </g>
 </g>
</svg>

<svg width="16" height="16" xmlns="http://www.w3.org/2000/svg"><g fill="#363636"><path d="M6.834 4L3.5 9h3l-.75 3h.416L9.5 7h-3l.75-3z"/><g fill-rule="evenodd" paint-order="stroke fill markers"><path d="M2 3C.892 3 0 3.892 0 5v6c0 1.108.892 2 2 2h9c1.108 0 2-.892 2-2V5c0-1.108-.892-2-2-2zm0 1h9c.554 0 1 .446 1 1v6c0 .554-.446 1-1 1H2c-.554 0-1-.446-1-1V5c0-.554.446-1 1-1z"/><path d="M2.518 5A.53.53 0 002 5.545v4.91c0 .303.23.545.518.545h1.964A.53.53 0 005 10.455V10H3.5a1 1 0 01-.832-1.555l2.185-3.277A.5.5 0 004.483 5H2.517zM14 6v4a2 2 0 002-2 2 2 0 00-2-2z"/></g></g></svg>
